X: 15366
T: Glasgow Highlanders, The
R: strathspey
M: 4/4
K: Dmajor
|:D>EF>G A2 A2|A>cd>e f2 a2|g>ef>d e>cd>B|A>BA>F E>GF>E|
D>EF>G A2 A2|A>cd>e f2 a2|g>ef>d e2 a2|(3 AAA (B>c) d4:|
|:a2 g2 f3 e|d>fe>d B4|g>ef>d e2 d2|((3 cfe) ((3 dcB) A4|
a2 g2 f3 e|d>fe>d B4|g>ef>d e2 a2|(3 AAA (B>c) d4:|

